X: 29572
T: Noon Lassies, The
R: reel
M: 4/4
K: Gmajor
E|G2 BG AcBA|GBAG GEDE|G2 BG AGAc|BAGE EDDE|
G2 BG AcBA|GBAG GEDE|G2 BG AGAc|BAGE ED D2||
BddB AGAc|BddB BAAc|BddB AGAc|BAGE ED D2|
BddB AGAc|BddB BAAc|BddB GFGB|ABGE ED D2||
dgbg agbg|dgbg ageg|dgbg ageg|dedc BG G2|
dgbg agbg|dgbg agef|gage dedB|BAGE ED Dd||
edBd edBd|edBA GEEd|edBd edBA|GAGE ED Dd|
edBd edBd|edBA GEEd|edBd ef g2|GAGE ED D||

